dist/img/sprites/icon_settings.svg

<svg width="23" height="23" viewBox="0 0 23 23" fill="none" xmlns="http://www.w3.org/2000/svg">
<g clip-path="url(#clip0_182_3187)">
<path d="M0.71875 4.05451H11.6619C11.9918 5.55576 13.3324 6.6828 14.9313 6.6828C16.5301 6.6828 17.8708 5.5558 18.2006 4.05451H22.2812C22.6782 4.05451 23 3.73269 23 3.33576C23 2.93883 22.6782 2.61701 22.2812 2.61701H18.2002C17.8698 1.11653 16.5273 -0.0112305 14.9313 -0.0112305C13.3344 -0.0112305 11.9925 1.11635 11.6622 2.61701H0.71875C0.32182 2.61701 0 2.93883 0 3.33576C0 3.73269 0.32182 4.05451 0.71875 4.05451ZM13.0218 3.33765L13.0219 3.32992C13.025 2.28023 13.8815 1.42631 14.9313 1.42631C15.9795 1.42631 16.8361 2.27907 16.8406 3.32826L16.8408 3.33882C16.8391 4.39031 15.9832 5.24535 14.9313 5.24535C13.8798 5.24535 13.0242 4.39116 13.0218 3.3403L13.0218 3.33765ZM22.2812 18.9453H18.2002C17.8697 17.4448 16.5273 16.317 14.9313 16.317C13.3344 16.317 11.9925 17.4446 11.6622 18.9453H0.71875C0.32182 18.9453 0 19.267 0 19.664C0 20.061 0.32182 20.3828 0.71875 20.3828H11.6619C11.9918 21.884 13.3324 23.011 14.9313 23.011C16.5301 23.011 17.8708 21.884 18.2006 20.3828H22.2812C22.6782 20.3828 23 20.061 23 19.664C23 19.267 22.6782 18.9453 22.2812 18.9453ZM14.9313 21.5735C13.8798 21.5735 13.0242 20.7194 13.0218 19.6685L13.0218 19.6659L13.0219 19.6582C13.025 18.6085 13.8815 17.7545 14.9313 17.7545C15.9795 17.7545 16.8361 18.6073 16.8406 19.6564L16.8408 19.667C16.8392 20.7186 15.9832 21.5735 14.9313 21.5735ZM22.2812 10.7812H11.3381C11.0082 9.27992 9.66759 8.15292 8.06873 8.15292C6.46987 8.15292 5.12922 9.27992 4.79941 10.7812H0.71875C0.32182 10.7812 0 11.103 0 11.4999C0 11.8969 0.32182 12.2187 0.71875 12.2187H4.79977C5.13026 13.7191 6.4727 14.8469 8.06873 14.8469C9.66562 14.8469 11.0075 13.7193 11.3378 12.2187H22.2812C22.6782 12.2187 23 11.8969 23 11.4999C23 11.103 22.6782 10.7812 22.2812 10.7812ZM9.97818 11.498L9.97814 11.5057C9.97499 12.5554 9.11847 13.4094 8.06873 13.4094C7.02048 13.4094 6.16391 12.5566 6.15937 11.5075L6.15924 11.4969C6.16081 10.4453 7.0168 9.59042 8.06873 9.59042C9.12017 9.59042 9.97585 10.4446 9.97823 11.4955L9.97818 11.498Z" fill="#23272B"/>
</g>
<defs>
<clipPath id="clip0_182_3187">
<rect width="23" height="23" fill="white"/>
</clipPath>
</defs>
</svg>

<svg width="23" height="23" viewBox="0 0 23 23" fill="none" xmlns="http://www.w3.org/2000/svg"><g clip-path="url(#clip0_182_3187)"><path d="M.719 4.055h10.943a3.353 3.353 0 003.27 2.628A3.353 3.353 0 0018.2 4.055h4.08a.719.719 0 100-1.438H18.2a3.356 3.356 0 00-3.27-2.628 3.355 3.355 0 00-3.269 2.628H.72a.719.719 0 000 1.438zm12.303-.717V3.33a1.913 1.913 0 011.91-1.904c1.047 0 1.904.853 1.909 1.902v.01a1.912 1.912 0 01-1.91 1.907 1.912 1.912 0 01-1.91-1.905v-.002zm9.26 15.607H18.2a3.356 3.356 0 00-3.269-2.628 3.355 3.355 0 00-3.269 2.628H.72a.719.719 0 100 1.438h10.943a3.353 3.353 0 003.27 2.628 3.353 3.353 0 003.269-2.628h4.08a.719.719 0 100-1.438zm-7.35 2.628a1.912 1.912 0 01-1.91-1.904v-.011a1.913 1.913 0 011.91-1.904c1.047 0 1.904.853 1.909 1.902v.011a1.912 1.912 0 01-1.91 1.906zm7.35-10.792H11.337a3.353 3.353 0 00-3.27-2.628A3.353 3.353 0 004.8 10.78H.72a.719.719 0 000 1.438H4.8a3.356 3.356 0 003.27 2.628 3.355 3.355 0 003.269-2.628H22.28a.719.719 0 100-1.438zm-12.304.717v.008a1.913 1.913 0 01-1.91 1.903 1.913 1.913 0 01-1.909-1.902v-.01A1.912 1.912 0 018.07 9.59c1.051 0 1.907.855 1.91 1.905v.003z" fill="#23272B"/></g><defs><clipPath id="clip0_182_3187"><path fill="#fff" d="M0 0h23v23H0z"/></clipPath></defs></svg>
